Catalina-light/actions/16/format-font-size-less.svg

<svg xmlns="http://www.w3.org/2000/svg" width="16" height="16" viewBox="0 0 16 16">
 <defs>
  <style id="current-color-scheme" type="text/css">
   .ColorScheme-Text { color:#5c616c; } .ColorScheme-Highlight { color:#5294e2; }
  </style>
 </defs>
 <path style="fill:currentColor" class="ColorScheme-Text" d="M 6 1 L 1 15 L 3.5 15 L 4.5625 12 L 8.1347656 12 A 1.0001 1.0001 0 0 1 8.2929688 11.792969 L 9 11.085938 A 1.0001 1.0001 0 0 1 10.414062 11.085938 L 11 11.671875 L 11 9.7929688 A 1.0001 1.0001 0 0 1 11.130859 9.3007812 L 8 1 L 6 1 z M 7 5 L 8.75 10 L 5.25 10 L 7 5 z M 12 9.7929688 L 12 14.085938 L 9.7070312 11.792969 L 9 12.5 L 12.292969 15.792969 L 12.5 16 L 12.707031 15.792969 L 16 12.5 L 15.292969 11.792969 L 13 14.085938 L 13 9.7929688 L 12 9.7929688 z"/>
</svg>

<svg width="16" height="16" viewBox="0 0 16 16" xmlns="http://www.w3.org/2000/svg">
<defs>
<style id="current-color-scheme" type="text/css">.ColorScheme-Text { color:#5c616c; } .ColorScheme-Highlight { color:#5294e2; }</style>
</defs>
<path class="ColorScheme-Text" d="m6 1-5 14h2.5l1.0625-3h3.5723a1.0001 1.0001 0 0 1 0.1582-0.20703l0.70703-0.70703a1.0001 1.0001 0 0 1 1.4141 0l0.58594 0.58594v-1.8789a1.0001 1.0001 0 0 1 0.13086-0.49219l-3.1309-8.3008h-2zm1 4 1.75 5h-3.5l1.75-5zm5 4.793v4.293l-2.293-2.293-0.70703 0.70703 3.5 3.5 3.5-3.5-0.70703-0.70703-2.293 2.293v-4.293h-1z" fill="#363636"/>
</svg>
